src/lib/packages/icons/src/assets/filled/eye-slash.svg

<svg width="24" height="24" viewBox="0 0 24 24" fill="none" xmlns="http://www.w3.org/2000/svg">
<path d="M20.5901 10.52C21.1401 11.43 21.1401 12.57 20.5901 13.48C19.3601 15.53 16.61 19 12 19C11.252 19 10.5481 18.905 9.89407 18.74C9.67107 18.684 9.60094 18.3981 9.76394 18.2361L11.6599 16.3401C11.7759 16.2241 11.92 16.25 12 16.25C14.344 16.25 16.25 14.343 16.25 12C16.25 11.92 16.2381 11.762 16.3211 11.679L19.063 8.93704C19.19 8.81004 19.4039 8.82313 19.5149 8.96413C19.9549 9.52013 20.3131 10.053 20.5901 10.52ZM21.5301 3.53005L3.53005 21.5301C3.38405 21.6761 3.19202 21.75 3.00002 21.75C2.80802 21.75 2.61599 21.6771 2.46999 21.5301C2.17699 21.2371 2.17699 20.762 2.46999 20.469L6.17507 16.7639C4.90507 15.6829 3.98394 14.436 3.40994 13.479C2.85994 12.569 2.85994 11.4291 3.40994 10.5191C4.63994 8.46907 7.39002 4.99905 12 4.99905C13.824 4.99905 15.3471 5.54595 16.6131 6.32595L20.47 2.46902C20.763 2.17602 21.238 2.17602 21.531 2.46902C21.824 2.76202 21.8231 3.23705 21.5301 3.53005ZM8.52004 14.419L9.60891 13.3301C9.38691 12.9351 9.25002 12.486 9.25002 12C9.25002 11.65 9.31996 11.32 9.43996 11.01C9.62996 11.17 9.86992 11.27 10.1399 11.27C10.7599 11.27 11.27 10.7599 11.27 10.1399C11.27 9.86992 11.17 9.62996 11.01 9.43996C11.32 9.31996 11.65 9.25002 12 9.25002C12.486 9.25002 12.9361 9.38691 13.3301 9.60891L14.419 8.52004C13.731 8.03804 12.899 7.75002 12 7.75002C9.66002 7.75002 7.75002 9.66002 7.75002 12C7.75002 12.9 8.03804 13.731 8.52004 14.419Z" fill="currentColor"/>
</svg>

<svg xmlns="http://www.w3.org/2000/svg" width="24" height="24" fill="none"><path fill="currentColor" d="M20.59 10.52c.55.91.55 2.05 0 2.96C19.36 15.53 16.61 19 12 19a8.59 8.59 0 0 1-2.106-.26c-.223-.056-.293-.342-.13-.504l1.896-1.896c.116-.116.26-.09.34-.09A4.255 4.255 0 0 0 16.25 12c0-.08-.012-.238.071-.321l2.742-2.742a.305.305 0 0 1 .452.027c.44.556.798 1.089 1.075 1.556Zm.94-6.99-18 18a.748.748 0 0 1-1.06 0 .75.75 0 0 1 0-1.061l3.705-3.705a13.542 13.542 0 0 1-2.765-3.285c-.55-.91-.55-2.05 0-2.96C4.64 8.47 7.39 5 12 5c1.824 0 3.347.547 4.613 1.327L20.47 2.47a.75.75 0 1 1 1.06 1.061ZM8.52 14.419l1.089-1.089A2.702 2.702 0 0 1 9.25 12c0-.35.07-.68.19-.99.19.16.43.26.7.26.62 0 1.13-.51 1.13-1.13 0-.27-.1-.51-.26-.7.31-.12.64-.19.99-.19.486 0 .936.137 1.33.359l1.09-1.089A4.202 4.202 0 0 0 12 7.75 4.26 4.26 0 0 0 7.75 12c0 .9.288 1.731.77 2.419Z"/></svg>
